X:1
T:Reflect the Christ
T:Reflect the Christ
T:Charles Hutchinson Gabriel
T:Ella May Davis, 1922
T:Public Domain Courtesy of the Cyber Hymnal™
T:Public Domain Courtesy of the Cyber Hymnal™
C:Charles Hutchinson Gabriel
Z:Public Domain
Z:Courtesy of the Cyber Hymnal™
%%score ( 1 2 ) ( 3 4 )
L:1/8
Q:1/4=105
M:4/4
K:Bb
V:1 treble 
V:2 treble 
V:3 bass 
V:4 bass 
V:1
 [DF]2 | [DB]2 [FB]2 [EB]>[EA] [EG]>[EA] | [DB]2 [EG]2 [DF]2 (D[CE]) | [DF]2 [DG]2 [EA]2 [FB]2 | %4
w: 1.~All|na- ture tells us of His|won- drous care; For *|us He’s fa- shioned|
w: 2.~We|hear His whis- per in the|birds that sing, In *|sway- ing trees and|
w: 3.~From|dawn of day un- til the|night is here We *|look a- round us,|
w: 4.~Through-|out the world are ea- ger|ones who long To *|leave their wretch- ed|
 [Fe]>[Fe] [Fd]>[Fd] [Fc]2 [Fc]2 | [=Ec]2 [Ed]2 [Fc]>[EG] [EA]>[EB] | [Fc]2 [=Ec]2 [Fc]2 [Ec]2 | %7
w: all its beau- ties rare; His|pre- sence is re- flect- ed|ev- ery- where; Do|
w: in the bub- bling spring; We|look, and find Him in each|grow- ing thing— Can|
w: and we feel Him near, And|joy lights up the path we|once thought drear— Does|
w: paths of sin and wrong; They|seek the Christ a- mid the|anx- ious throng— Can|
 [Ff]3 [FA] [=Ec]2 [Ec]2 | F6 x4 ||"^Refrain" F2 | [Fd]2 [DB]2 [DF]>[CE] [B,D]>[CE] | %11
w: you re- flect Him,|too?|||
w: He be found in|you?|Re-|flect the Sav- ior in your|
w: He shine forth in|you?|||
w: they see Him in|you?|||
 [DF]2 [DB]2 [Fd]2 [Fd]>[Ge] | [Fd]2 [Ec]>[EF] [Ec]2 [Fd]2 | [Ec]2 [DB]2 [DB]2 [DF]2 | %14
w: |||
w: life to- day; As you|go out up- on the|crowd- ed way, Let|
w: |||
w: |||
 [EG]2 [GB]2 [Gc]>[GB] [FA]>[EG] | [DF]2 [DB]2 [Fd]3 [Fe] | [Ff]3 [GB] [Fd]2 [Ec]2 | [DB]6 |] %18
w: ||||
w: Him be seen in all you|do and say— Re-|flect the Christ to-|day.|
w: ||||
w: ||||
V:2
 x2 | x8 | x6 B,2 | x8 | x8 | x8 | x8 | x8 | F6 x4 || F2 | x8 | x8 | x8 | x8 | x8 | x8 | x8 | x6 |] %18
V:3
 [B,,B,]2 | [B,,F,]2 [D,B,]2 [F,C]>[F,C] [F,C]>[F,C] | [B,,B,]2 [B,,B,]2 [B,,B,]2 [B,,F,]2 | %3
 [B,,B,]2 [B,,B,]2 [C,F,]2 [D,B,]2 | [C,A,]>[C,A,] [B,,B,]>[D,B,] [F,A,]2 [F,A,]2 | %5
 [G,B,]2 [C,B,]2 [F,A,]>[B,C] [A,C]>[G,C] | [F,A,]2 [G,B,]2 [F,A,]2 [G,B,]2 | %7
 [A,C]3 [F,C] [C,B,]2 [C,B,]2 | z2 x8 || [C,F,A,]2 | %10
 [B,,B,]2 [B,,F,]2 [B,,B,]>[B,,B,] [B,,F,]>[B,,F,] | [B,,B,]2 [B,,F,]2 [B,,B,]2 [B,,B,]>[B,,B,] | %12
 [F,B,]2 [F,A,]>[F,A,] [F,A,]2 [F,A,]2 | [B,,B,]2 [B,,B,]2 [B,,B,]2 [B,,B,]2 | %14
 [E,B,]2 [E,B,]2 [E,E]>[E,E] [E,B,]>[E,B,] | [B,,B,]2 [B,,B,]2 B,3 [B,C] | %16
 [D,B,]3 [E,B,] [F,B,]2 [F,A,]2 | [B,,B,]6 |] %18
V:4
 x2 | x8 | x8 | x8 | x8 | x8 | x8 | x8 | [F,A,]6 E,2 D,2 || x2 | x8 | x8 | x8 | x8 | x8 | %15
 x4 B,3 x | x8 | x6 |] %18

